X:17
T:Vals efter R\"odmudden
R:vals
H:efter R\"odmudden, N\"ossemark
A:Dalsland
Z:id:hn-vals-17
M:3/4
L:1/8
K:Am
(fe)d|B2 c2 (cA)|^G2 A2 B2|(AE) (AB) (cA)|B3 (fe)d|
B2 c2 (cA)|^G2 A2 B2|c2 (ed) (Bc)|A3:|
|:z(^cd)|e2 g2 (^fa)|e3 z (^cd)|(eQ=f) (ed) (B=c)|(A^G) A2 (^cd)|
e2 g2 {^fg}(fd)|e3 z (^cd)|(eQ=f) (ed) (B=c)|A3:|
<end>
<start>
